X:1
T:Content seray
T:Pierre Certon
T:Source : Livre XII de 30 chansons nouvelles à 4 parties---Paris---P.Attaingnant---1543. Editor : André Vierendeels (09/06/18) Notes : Original clefs : C1, C3, C4, F3 Original note values have been halved Editorial accidentals above the staff Square brackets indicate ligatures
T:Content seray
T:©
T:©
T:©
C:Pierre Certon
Z:©
%%score [ 1 2 3 4 ]
L:1/8
Q:1/4=120
M:2/2
K:C
V:1 treble nm="Soprano" snm="S"
V:2 treble nm="Alto" snm="A"
V:3 treble-8 nm="Tenor" snm="T"
V:4 bass nm="Bass" snm="B"
V:1
 A8 | A2 c3 B A2- | AGFE F4 | E4 z2 E2 | G2 G2 A2 A2 | GFED C2 c2- | c2 B2 A4 | G2 B3 A A2- | %8
w: Con-|tent se- * *||ray quant|el- le se- ra|mien- * * * * *|||
"^#" A2 G2 A4- | A4 z2 A2 | G2 c2 B2 G2 | GABc d2 c2 | A2 c4 BA | G4 z2 c2 | c2 B2 A4 | G4 z4 | %16
w: * * ne,|_ aul-|tre de- sir n'en-|tre- * * * * tient|ma pen- sé- *|e, tou-|te ma gloi-|re|
 z2 G2 A2 c2 | c2 B2 cBcd | e2 d3 c c2- | c2 B2 c4 | z2 c2 c4 | z2 B2 B4 | A4 A2 d2 | dcBA G2 G2 | %24
w: est d'ex- al-|ter la sien- * * *||* * ne,|he- las,|he- las,|en- cor' en|est _ _ _ _ el-|
 A2 A2 GFEF | GA B3 A A2- | A2 G2 A4 | z2 c2 c4 | z2 B2 B4 | A4 A2 d2 | dcBA G2 G2 | A2 A2 GFEF | %32
w: le'of- fen- sé- * * *||* * e,|he- las,-|he- las,-|en- cor' en|est _ _ _ _ el-|le'of- fen sé- * * *|
 GA B3 A A2- |"^#" A2 G2 A4- | A8 |] %35
w: |* * e.|_|
V:2
 E8 | E4 F4- | F2 E2 D4 | C2 A,2 C2 C2 | B,2 B,2 A,B,CD | E2 C4 B,A, | G,2 E2 F2 F2 | E2 G2 F4 | %8
w: Con-|tent se-||ray, quant el- le|se- ra mien- * * *||ne, quant el- le|se- ra mien-|
 E4 z2 E2 | E2 D2 E4 | E4 D3 C | B,4 A,2 C2- | CB,A,G, A,4 | B,4 z2 G2 | G2 G2 E4 | E2 D2 C2 C2 | %16
w: ne, aul-|tre de- sir|n'en- tre- tient|ma pen- *|* * * * sé-|e, tou-|te ma gloi-|re, est d'ex- al-|
 D2 D2 EDEF | G4 C2 C2 | G2 G2 A2 F2 | G4 E4 | z2 A2 A4 | z2 G2 G4 | E4 F4 | F4 E2 E2 | C2 D2 E4- | %25
w: ter la sien- * * *|* ne, est|d'ex- al- ter la|sien- ne,|he- las,|he- las,|en- cor'|en est el-|le'of- fen sé-|
 E2 F4 D2 | E4 C4 | z2 A2 A4 | z2 G2 G4 | E4 F4 | F4 E2 E2 | C2 D2 E4- | E2 F4 D2 | E4 C4- | C8 |] %35
w: |* e,|he- las,|he- las,|en- cor'|en est el-|le'of- fen- sé-||* e.|_|
V:3
 z4 A4- | A4 A4 | c4 A4- | A8 | z2 E2 F2 F2 | E2 G2 ABcd | e2 B2 c2 d2 | B2 e2 c2 d2 | B4 A4 | %9
w: Con-|* tent|se- ray|_|quant el- le|se- ra mien- * * *|||* ne,|
 z2 A2 G2 c2 | B2 G2 GABc | dcde f2 ed | c2 e4 d2 | e8 | z4 z2 c2 | c2 B2 A4 | G4 z4 | %17
w: aul- tre de-|sir n'en- tre- * * *|* * * * tient _ _|ma pen- sé-|e,|tou-|te ma gloi-|re|
 z2 G2 A2 c2 | c2 B2 c4 | d4 c4 | z2 e2 e4 | z2 e2 e4 | c4 d2 A2 | d3 d B2 c2 | A4 B2 GA | %25
w: est d'ex- al-|ter la sien-|* ne,|he- las,|he- las,|en- cor' en|est el- le'of- fen-|sé- * * *|
 Bc d3 cBA | B4 A4 | z2 e2 e4 | z2 e2 e4 | c4 d2 A2 | d3 d B2 c2 | A4 B2 GA | Bc d3 cBA | B4 A4- | %34
w: |* e,|he- las,|he- las,|en- cor' en|est el- le'of- fen-|sé- * * *||* e.|
 A8 |] %35
w: _|
V:4
 A,4 A,2 C2- | CB, A,3 G, F,2- | F,2 C,2 D,4 | A,,8 | G,,4 z4 | z2 E,2 F,2 F,2 | E,2 G,2 F,2 D,2 | %7
w: Con- tent se-||||ray|quant el- le|se- ra mien- *|
 E,4 F,2 D,2 | E,4 A,,2 A,2 | F,2 F,2 E,2 A,,2 | E,D,E,F, G,4- | G,2 G,2 D,2 A,2- | A,G,F,E, F,4 | %13
w: |* ne, aul-|tre de- sir n'en-|tre- * * * tient|_ ma pen- sé-||
 E,4 z2 C,2 | G,2 G,2 A,4 | E,2 G,2 A,2 C2 | C2 B,2 A,4 | G,2 G,2 F,3 E, | C,2 G,2 F,2 A,2 | %19
w: e, tou-|te ma gloi-|re, est d'ex- al-|ter la sien-|ne, et d'ex- al-|ter la sien- *|
 G,4 C,4 | z2 A,,2 A,,4 | z2 E,2 E,4 | A,4 D,4- | D,2 D,2 E,2 C,2 | F,2 F,2 E,4- | E,2 D,2 F,4 | %26
w: * ne,|he- las,|he- las,|en- cor'|_ en est el-|le'of- fen- sé-||
 E,4 A,,4 | z2 A,,2 A,,4 | z2 E,2 E,4 | A,4 D,4- | D,2 D,2 E,2 C,2 | F,2 F,2 E,4- | E,2 D,2 F,4 | %33
w: * e,|he- las,|he- las,|en- cor'|_ en est el-|le'of- fen- sé-||
 E,4 A,,4- | A,,8 |] %35
w: * e.|_|

